X:65
T:Reinlender etter Ringnesen
O:Norway
A:Gudbrandsdal, Oppland
C:etter Ola Ringneset
L:1/16
M:2/4
Q:1/4=75
R:Reinlender
K:D
%%rightmargin 11.5cm
P:Intro
"A7"g>fe<d cABc | "D".d2d2 d2 z2 |
%[V:2]"A7"g>fe<d cABc | "D".d2d2 d2 z2 |
%%rightmargin
%%staves 1 2
P:A
[V:1] A2 |: "D"D>FE<D A2A2 | D>FE<D f2f2 | "A7"g>fe<d cBA2 | cBAG "D"FED2 |
[V:2] z2 |: D2A2 F2D2 | F2A2 A3d | c2e2 e2c2 | A2ec d3f |
[V:1] "D"D>FE<D A2A2 | D>FE<D f2f2 | "A7"g>fe<d cABc | "D".d2.d2 d2 z2 :|
[V:2] a2a<f d2d2 | A2A<F D2D2 | E2A2 G2E2 | .A2.F2 D2 z2 :|
P:B
[V:1] e>f |: "G".g2B2 B>gf<e | "D".f2A2 A>fe<d | "A7"c2EF GABc | "D"d2D2 F2ef |
[V:2] z2 |: .B2G2 B3G | .A2F2 A3F | .E2C2 E3E | F2A2 A3d |
[V:1] "G".g2B2 B>gf<e | "D".f2A2 A>fe<d | "A7"c2EF GABc | "D".d2.d2 d2 z2 :|
[V:2] .d2g2 g2d<B | .A2d2 d2c<B | A3A E2G2 | .F2D2 D2 z2 :|

